src/assets/tomato.svg

<?xml version="1.0" encoding="utf-8"?>
<svg xmlns="http://www.w3.org/2000/svg" width="1024" height="513" viewBox="0 0 1024 513">
  <path fill="#A63131" d="M512 511.936c282.734 0 511.936-229.2 511.936-511.936H.064C.064 282.734 229.266 511.936 512 511.936z"/>
  <path fill="#BC5757" d="M512 411c226.988 0 411-184.01 411-411H101c0 226.99 184.01 411 411 411z"/>
  <path fill="#F1D4AF" d="M518.356 134.897l-42.718 77.038c-8.28 31.27 16.665 55.75 41.574 56.672 24.91.918 52.402-24.766 44.305-55.938l-43.16-77.773zM669.548 85.61l25.08 84.444c16.52 27.807 51.468 27.146 69.568 10.008 18.1-17.138 19.018-54.75-8.906-70.8l-85.742-23.65zM366.072 85.563l-85.068 22.87c-28.23 15.79-28.48 50.742-11.82 69.284 16.662 18.54 54.237 20.44 71.01-7.056l25.878-85.097z"/>
</svg>

<?xml version="1.0" encoding="utf-8"?>
<svg width="1024" height="513" viewBox="0 0 1029.535 1024" preserveAspectRatio="xMidYMax" xmlns="http://www.w3.org/2000/svg">
  <g transform="matrix(0.805954, 0.805954, -0.805954, 0.805954, 195.545273, 7.83073)">
    <path fill="#A63131" d="M 512 511.936 C 794.734 511.936 1023.936 282.736 1023.936 0 L 0.064 0 C 0.064 282.734 229.266 511.936 512 511.936 Z"/>
    <path fill="#BC5757" d="M 512 411 C 738.988 411 923 226.99 923 0 L 101 0 C 101 226.99 285.01 411 512 411 Z"/>
    <path fill="#F1D4AF" d="M 518.356 134.897 L 475.638 211.935 C 467.358 243.205 492.303 267.685 517.212 268.607 C 542.122 269.525 569.614 243.841 561.517 212.669 L 518.357 134.896 Z M 669.548 85.61 L 694.628 170.054 C 711.148 197.861 746.096 197.2 764.196 180.062 C 782.296 162.924 783.214 125.312 755.29 109.262 L 669.548 85.612 Z M 366.072 85.563 L 281.004 108.433 C 252.774 124.223 252.524 159.175 269.184 177.717 C 285.846 196.257 323.421 198.157 340.194 170.661 L 366.072 85.564 Z"/>
  </g>
</svg>
